assets/Cowboy hat face/Flat/cowboy_hat_face_flat.svg

<svg width="32" height="32" viewBox="0 0 32 32" fill="none" xmlns="http://www.w3.org/2000/svg">
<path d="M17.0612 2.60173C17.5742 2.22688 18.2079 2 18.9019 2C20.6119 2 22 3.36128 22 5.03822V6H24V5.5C24 4.11929 25.1193 3 26.5 3C28.5 3 31 4 31 8C31 11.2 28 12.6667 26.5 13C22.1667 12.6667 14.6 12 19 12H13C17.4 12 9.83333 12.6667 5.5 13C4 12.6667 1 11.2 1 8C1 4 3.5 3 5.5 3C6.88071 3 8 4.11929 8 5.5V6H10V5.03822C10 3.36128 11.3881 2 13.0981 2C13.7921 2 14.4258 2.22688 14.9388 2.60173C15.5222 3.17386 16.4778 3.17386 17.0612 2.60173Z" fill="#6D4534"/>
<path d="M7.27414 10.2282C9.21459 11.1466 12.0739 12 16 12C19.9262 12 22.7856 11.1465 24.7261 10.2281C26.9097 12.4192 28 15.5397 28 19C28 25.6321 23.9967 31 16 31C8.00335 31 4 25.6321 4 19C4 15.5364 5.09186 12.4177 7.27414 10.2282Z" fill="#FFB02E"/>
<path d="M15 14.5C15 16.433 13.433 18 11.5 18C9.567 18 8 16.433 8 14.5C8 12.567 9.567 11 11.5 11C13.433 11 15 12.567 15 14.5Z" fill="white"/>
<path d="M24 14.5C24 16.433 22.433 18 20.5 18C18.567 18 17 16.433 17 14.5C17 12.567 18.567 11 20.5 11C22.433 11 24 12.567 24 14.5Z" fill="white"/>
<path d="M14.5 15C14.5 16.3807 13.3807 17.5 12 17.5C10.6193 17.5 9.5 16.3807 9.5 15C9.5 13.6193 10.6193 12.5 12 12.5C13.3807 12.5 14.5 13.6193 14.5 15Z" fill="#402A32"/>
<path d="M22.5 15C22.5 16.3807 21.3807 17.5 20 17.5C18.6193 17.5 17.5 16.3807 17.5 15C17.5 13.6193 18.6193 12.5 20 12.5C21.3807 12.5 22.5 13.6193 22.5 15Z" fill="#402A32"/>
<path d="M23.9999 6H7.99995V7C7.88427 8.15677 8.2182 10.1164 9.90449 11.2072C11.5516 11.6736 13.5717 12 15.9999 12C18.4281 12 20.4483 11.6736 22.0954 11.2072C23.7817 10.1164 24.1156 8.15677 23.9999 7V6Z" fill="#8C5543"/>
<path d="M10 5H22V6H10V5Z" fill="#A56953"/>
<path d="M16 28C8 28 8 20 8 20H24C24 20 24 28 16 28Z" fill="#BB1D80"/>
<path d="M9 20.5V20H23V20.5C23 21.0523 22.5523 21.5 22 21.5H10C9.44772 21.5 9 21.0523 9 20.5Z" fill="white"/>
</svg>

<svg xmlns="http://www.w3.org/2000/svg" width="32" height="32" fill="none"><path fill="#6D4534" d="M17.061 2.602A3.106 3.106 0 0 1 18.901 2C20.612 2 22 3.361 22 5.038V6h2v-.5A2.5 2.5 0 0 1 26.5 3c2 0 4.5 1 4.5 5 0 3.2-3 4.667-4.5 5-4.333-.333-11.9-1-7.5-1h-6c4.4 0-3.167.667-7.5 1C4 12.667 1 11.2 1 8c0-4 2.5-5 4.5-5A2.5 2.5 0 0 1 8 5.5V6h2v-.962C10 3.361 11.388 2 13.098 2c.694 0 1.328.227 1.84.602a1.527 1.527 0 0 0 2.123 0Z"/><path fill="#FFB02E" d="M7.274 10.228C9.214 11.147 12.074 12 16 12c3.926 0 6.786-.854 8.726-1.772C26.91 12.42 28 15.54 28 19c0 6.632-4.003 12-12 12S4 25.632 4 19c0-3.464 1.092-6.582 3.274-8.772Z"/><path fill="#fff" d="M15 14.5a3.5 3.5 0 1 1-7 0 3.5 3.5 0 0 1 7 0ZM24 14.5a3.5 3.5 0 1 1-7 0 3.5 3.5 0 0 1 7 0Z"/><path fill="#402A32" d="M14.5 15a2.5 2.5 0 1 1-5 0 2.5 2.5 0 0 1 5 0ZM22.5 15a2.5 2.5 0 1 1-5 0 2.5 2.5 0 0 1 5 0Z"/><path fill="#8C5543" d="M24 6H8v1c-.116 1.157.218 3.116 1.904 4.207 1.648.467 3.668.793 6.096.793s4.448-.326 6.095-.793C23.782 10.117 24.115 8.157 24 7V6Z"/><path fill="#A56953" d="M10 5h12v1H10V5Z"/><path fill="#BB1D80" d="M16 28c-8 0-8-8-8-8h16s0 8-8 8Z"/><path fill="#fff" d="M9 20.5V20h14v.5a1 1 0 0 1-1 1H10a1 1 0 0 1-1-1Z"/></svg>
